web/packages/design/src/ResourceIcon/assets/opencomp.svg

<svg width="72" height="72" viewBox="0 0 72 72" fill="none" xmlns="http://www.w3.org/2000/svg">
<path d="M36.004 12.8521C16.1493 12.8521 0 28.8919 0 48.6121C0 51.9871 0.477377 55.3461 1.42403 58.5846L1.5859 59.1391H10.2349L9.85461 58.1105C9.73324 57.781 9.61997 57.4596 9.5148 57.1221C8.62486 54.3818 8.17179 51.521 8.17179 48.6121C8.17179 33.3678 20.6559 20.9684 36.004 20.9684C51.3524 20.9684 63.8364 33.3678 63.8364 48.6121C63.8364 51.4166 63.4156 54.1809 62.5824 56.8328C62.4448 57.2586 62.2992 57.6847 62.1454 58.1024L61.7652 59.1311H70.4142L70.576 58.5766C71.5226 55.3381 72 51.979 72 48.604C72.0081 28.8919 55.8589 12.8521 36.004 12.8521Z" fill="#B3EBDF"/>
<path d="M67.591 19.5305C66.8466 18.7349 65.8434 18.2688 64.7511 18.2286C63.6589 18.1804 62.6152 18.5661 61.8142 19.3055L32.5821 46.1375C31.7811 46.8688 31.3118 47.8733 31.2715 48.9581C31.231 50.043 31.6113 51.0796 32.3556 51.8751C33.1243 52.7029 34.2165 53.1769 35.3572 53.1769C36.3849 53.1769 37.3719 52.7912 38.1324 52.1002L67.3645 25.2601C68.1655 24.5288 68.6348 23.5243 68.6751 22.4395C68.7156 21.3546 68.3353 20.318 67.591 19.5224V19.5305Z" fill="#42CCB0"/>
</svg>

<svg xmlns="http://www.w3.org/2000/svg" width="72" height="72" fill="none" viewBox="0 0 72 72"><path fill="#b3ebdf" d="M36.004 12.852C16.149 12.852 0 28.892 0 48.612c0 3.375.477 6.734 1.424 9.973l.162.554h8.649l-.38-1.029c-.122-.329-.235-.65-.34-.988a27.5 27.5 0 0 1-1.343-8.51c0-15.244 12.484-27.644 27.832-27.644s27.832 12.4 27.832 27.644c0 2.805-.42 5.569-1.254 8.22q-.206.643-.437 1.27l-.38 1.03h8.65l.161-.555A35.6 35.6 0 0 0 72 48.604c.008-19.712-16.141-35.752-35.996-35.752"/><path fill="#42ccb0" d="M67.591 19.53a4.07 4.07 0 0 0-2.84-1.301 4.04 4.04 0 0 0-2.937 1.076L32.582 46.138a4 4 0 0 0-1.31 2.82 4.02 4.02 0 0 0 1.084 2.917 4.1 4.1 0 0 0 3.001 1.302 4.13 4.13 0 0 0 2.775-1.077l29.233-26.84a4 4 0 0 0 1.31-2.82 4.02 4.02 0 0 0-1.084-2.918z"/></svg>
